X:1
T:Etude Op11-1
T:Etude No.1
T:S.Liapounow, Op.11
T:Berceuse
C:C.Lyapunov
%%score { ( 1 3 5 6 ) | ( 2 4 7 ) }
L:1/8
Q:1/4=48
M:2/4
K:F#
V:1 treble nm="Piano" snm="Pno."
V:3 treble 
V:5 treble 
V:6 treble 
V:2 bass 
V:4 bass 
V:7 bass 
V:1
"^Andantino"!p! z2 z (G |!mp! [FB]2 [Ec]2 |!p! [DG]) z z (g |!mp! [fb]2 [ec']2 | %4
!p! [dg]) z z[Q:1/4=40]!8va(! (g' | %5
[Q:1/4=30] [f'b'])[Q:1/4=20] !fermata!z/[Q:1/4=40]"_delicato"!pp! ([e'c'']/[Q:1/4=48] [=d'g']/[c'a']/[Q:1/4=60][be']/[af']/!8va)![Q:1/4=62] [g^^c']/[f^d']/[Q:1/4=64][=ea]/[=db]/[Q:1/4=66] [=dg]/[ca]/[Q:1/4=68][B^e]/[Af]/[Q:1/4=64] [G^^c]/[F^d]/[Q:1/4=60][=EA]/[DB]/[Q:1/4=30] [=DG]) z/"_rit." ([CA]/[Q:1/4=25][B,^E]) z[Q:1/4=40] !fermata!z2 | %6
"^a tempo"[Q:1/4=48] z4 | z2 z (F | GB cd | AB c2) | (GB AG | A3) (F | GB cd | AB!mp! [=Ec]2) | %14
 (GB AG |[Q:1/4=47] A3)[Q:1/4=46][Q:1/4=44] (A |[Q:1/4=48] Bd e{/g}f | ed)!mp! (c2- | cd AG | %19
 A3) (A | Bd ea | gf) (cd) | e2"^poco rit."!<(!{/g} (f[Q:1/4=47]e)!<)! | %23
!mp![Q:1/4=46] d2[Q:1/4=45] e2 |"^a tempo" c2 z!p! ([egc'][Q:1/4=48] | %25
 !arpeggio![=e=a=e']2 !arpeggio![daf']2 | !arpeggio![^egc']2) z ([egc'] | [cf=a]2 [Bfb]2 | %28
 !arpeggio![Gec']2) z ([EGc] |!<(! [=Gc=e]2 [Fcf]2 | [^Ec]2) x [Ec]!<)! | %31
!mf! !arpeggio![=EB=e]2 !arpeggio![EAf]2 | (c=e[Q:1/4=46] f[Q:1/4=44]g) | %33
[Q:1/4=47]!>(! =e2[Q:1/4=46] z!>)!!p![Q:1/4=44] ([gb=e'] | %34
[Q:1/4=48] !arpeggio![=g=c'=g']2 !arpeggio![fc'=a']2 | !arpeggio![^gb=e']2) z ([gbe'] | %36
 [=e=a=c']2 [=da=d']2 | !arpeggio![Bg=e']2) z ([GB=e] |!<(! [_B=e=g]2 [=Ae=a]2 | =e2) z (e!<)! | %40
!mf! =g2 fc |!>(!{/=e} =dc B2!>)! |!p! c2) z (G | [FB]2!>(! [Ec]2!>)! |!pp! [DG]) z z ([dg] | %45
 [^^ceb]2 [df^c']2 |[Q:1/4=47] [^^cg])!<(! z[Q:1/4=46] z[Q:1/4=40] ([^^c'g']!<)! | %47
[Q:1/4=30] !arpeggio![b=d'f'b'])[Q:1/4=20] !fermata!z/[Q:1/4=40]!pp!!8va(! ([g'=e'']/[Q:1/4=48] [=f'b']/[=e'c'']/[Q:1/4=60][d'g']/[c'=a']/[Q:1/4=62] [b^e']/[=a^f']/[Q:1/4=64][=gc']/[f=d']/!8va)![Q:1/4=66] [=fb]/[=ec']/[Q:1/4=68][=d^g]/[c=a]/[Q:1/4=64] [B^e]/[=A^f]/[Q:1/4=60][=Gc]/[F=d]/[Q:1/4=48] [^EB])[Q:1/4=30] z/[Q:1/4=25] ([^Dc]/[Q:1/4=20][E^A]) z[Q:1/4=40] !fermata!z2 | %48
"^a tempo\n""^una corda" z4[Q:1/4=48] | z2 z"^la melodia sempre cantabile" (f!pp! | gb c'd' | %51
 ab c'2)[Q:1/4=47][Q:1/4=46] | (g[Q:1/4=48]b ag | a3)!8va(![Q:1/4=42][Q:1/4=48] (f!8va)! | %54
 gb c'd' | ab c'2)[Q:1/4=47][Q:1/4=46] | (g[Q:1/4=48]b ag | %57
 a3)!8va(![Q:1/4=42][Q:1/4=48] (a!8va)! |"_cresc." bd' e'f' | e'd') c'2-[Q:1/4=47][Q:1/4=46] | %60
 (c'[Q:1/4=48]d' ag | a3)!8va(![Q:1/4=40]!f![Q:1/4=48] (a!8va)! | bd'[Q:1/4=46] e'[Q:1/4=44]a' | %63
[Q:1/4=46] g'[Q:1/4=48]f') (c'd' | =e'2[Q:1/4=46] d'b) |[Q:1/4=44] (g2[Q:1/4=40] a2[Q:1/4=38] | %66
!p![Q:1/4=40] f)[Q:1/4=48] z z ([ac'f'][Q:1/4=44] | !arpeggio![=a=d'=a']2 !arpeggio![gd'b']2 | %68
 !arpeggio![^ac'f']2) z ([ac'f'] |[Q:1/4=47] [fb=d']2[Q:1/4=46] [=eb=e']2[Q:1/4=44] | %70
[Q:1/4=40] !arpeggio![caf']2)[Q:1/4=48] z (f[Q:1/4=46] |!<(! [=cf=a]2 [Bfb]2!<)! | %72
!mp! [^Af]2) z ([FAf] | [FB=d]2 [=EB=e]2[Q:1/4=30] | %74
!p![Q:1/4=48] !arpeggio![=D=A=df]4)[Q:1/4=46][Q:1/4=40] | %75
!p!"^poco rit." [G,=DF]4[Q:1/4=43][Q:1/4=44][Q:1/4=42] | %76
"^a tempo" !arpeggio![A,CFc]2 z2[Q:1/4=46][Q:1/4=44] |[Q:1/4=42] a x[Q:1/4=40] x2[Q:1/4=38] | %78
 a' z z!pp![Q:1/4=36] !arpeggio![fc'] | %79
[Q:1/4=32] !arpeggio![=e=g=e']2!>(! !arpeggio![=df=af']2!>)! | %80
[Q:1/4=44] x2 x7/4[Q:1/4=16] x/16x/16x/16x/16 !arpeggio!!fermata![cf^ac']4[Q:1/4=36][Q:1/4=20] |] %81
V:2
!ped! z/!<(! (C,,/G,,/C,/ A,/G,/B,/D/)!ped-up!!<)! |!ped! z/ (=D/!>(!G,/C,/- C,/A,/C/E,/!ped-up! | %2
 B,/)!>)!!ped! (C,/G,/!<(!^D/[K:treble] A/G/B/d/)!ped-up!!<)! | %3
!ped! z/!>(! (=d/G/C/- C/A/c/E/!>)! | B/)!ped-up!!ped!(C/G/d/!<(! a/g/b/d'/!ped-up!!<)! | %5
!ped! [g=d']) !fermata!z/!ped-up!!ped! ([ac']/ [eb]/[fa]/[^^cg]/[^df]/ [Ae]/[Bd]/[^^F^c]/[GB-]/ [EB]/[^FA]/[^^CG]/[DF]/ [A,E]/[B,D]/[^^F,^C]/[G,B,-]/ [E,B,])!ped-up! z/[K:bass]!ped! (C,,/G,) z!ped-up! !fermata!z2 | %6
!p!!ped! F,,,/ (F,,/C,/A,/) z/ (A,/C,/F,,/) | z/ (F,,/C,/A,/) z/ (A,/C,/!ped!F,,/)!ped-up! | %8
 x2 z/ B,3/2-!ped-up!!ped! | B,2!ped-up!!ped! z/ A,3/2!ped-up!!ped! | %10
 z/ (F,,/C,/G,/) z/ (B,/!ped-up!!ped!C,/F,,/) | %11
!ped! z/ (F,,/C,/A,/) z/ (A,/!ped-up!C,/F,,/)!ped!!ped-up! |!<(! x2!ped-up!!ped! z/ B,3/2- | %13
 B,2!ped!!<)!!ped! z/!ped-up! (C/=E,/^^F,,/)!ped!!ped-up! | z/ (G,,/^E,/G,/) z/!>(! (G,/D,/B,,/) | %15
!ped! z/ (A,,/E,/A,/)!>)! z/!ped-up!!ped! (E/E,/!ped-up!A,,/)!ped!!ped-up! | %16
 x2!ped-up!!ped! z/!<(! ^^C3/2 |!ped! A,2!<)!!ped-up!!ped! z/ A,3/2!ped-up! | %18
 B, x z/!>(! (B,/D,/A,,/) | %19
!ped! z/ (A,,/E,/A,/)!>)! z/!ped-up!!ped! (E/E,/!ped-up!A,,/)!ped!!ped-up! | %20
"^cresc."[I:staff -1] (!arpeggio![DG]F!ped! E2 | %21
!ped![I:staff +1] C2)!ped-up!!ped! (A,,/C/F,/!ped-up!=A,,/)!ped! | x2 x2!ped-up!!ped! | %23
[I:staff -1] !arpeggio![FA]2!ped-up!!ped! !arpeggio![FG]2!ped-up!!ped! | %24
[I:staff +1] z/ (C,,/G,,/E,/ A,/G,/[K:treble]E/c/)!ped-up!!ped! | %25
 z/ C/=E/=A/!ped-up!!ped! c/A/D/C/!ped-up!!ped! | z/ (C/G/c/ g/c/G/C/) | %27
!ped! (d2!ped-up!!ped! =d2!ped-up!!ped!!ped-up! | c2)[K:bass] z2 | %29
!ped! z/ (A,,/=G,/C/)!ped-up!!ped! z/ (C/F,/=A,,/)!ped-up! | %30
!ped! z/ (G,,/C,/E,/ C/E,/C,/!ped-up!G,,/)!ped!!ped-up! | %31
 z/ =G,,/C,/C/!ped-up!!ped! z/ C/C,/F,,/!ped-up!!ped! | z/ (B,,,/B,,/F,/ C/=E/D/B,/) | %33
!ped! z/ (=E,,/B,,/G,/ C/B,/!ped-up![K:treble]"^dol."G/!ped-up!=e/)!ped! | %34
 z/ (=E/=G/=c/!ped-up!!ped! =e/c/F/E/) |!ped! z/ (=E/B/=e/ b/e/B/E/)!ped-up! | %36
 f2 =f2!ped-up!!ped! | =e2 z2 |[K:bass]!ped! z/ (C,/_B,/=E/)!ped-up!!ped! z/ (E/=A,/!ped-up!=C,/) | %39
!ped! z/ (B,,/=E,/G,/ =E/G,/E,/!ped-up!B,,/)!ped!!ped-up! | %40
 z/ (=A,,/=E,/C/)!ped-up!!ped! z/ (C/=G,/^A,,/) |!ped! z/ (B,,/F,/=D/) z/ (F,/G,,/=D,,/)!ped-up! | %42
!ped! z/ (C,,/!<(!G,,/^D,/ A,/G,/B,/D/)!ped-up!!<)! | %43
!ped! z/ (=D/!>(!G,/C,/-!ped-up!!ped! C,/A,/C/!ped-up!!>)!E,/ | %44
 B,/)!pp!!ped! (C,/G,/^D/[K:treble] A/G/B/E/)!ped-up! | %45
!ped! z/ (G/E/A,/-!ped-up!!ped! A,/F/A/!ped-up!D/ | %46
 [EB]/)!ped! (A,/G/^^c/ f/e/a/A/)!ped-up!!ped!!ped-up! | %47
 !arpeggio![=EB=dg] !fermata!z/ ([c'e']/!ped-up! [g=d']/[=ac']/[^eb]/[f^a]/ [cg]/[=df]/[^A=e]/[Bd-]/ [Gd]/[=Ac]/[^EB]/[FA]/ [CG]/[=DF]/[^A,=E]/[B,D-]/ [G,D]) z/[K:bass]"^rit."!ped! (C,,/[C,B,]) z !fermata!z2 | %48
!p!!ped! F,,,/ (F,,/C,/!>(!A,/) z/ (F/A,/C,/) | x12!ped-up! %49
 z/ (F,,/C,/A,/)!>)! z/ (F/"^dolciss."A,/C,/) |!ped! z/ (F,,/C,/G,/) z/ (E/B,/C,/)!ped-up! | %51
!ped! z/ (F,,/C,/C/) z/ (F/!ped!!ped-up!A,/C,/) | %52
!ped! z/ (F,,/C,/G,/)!ped-up!!ped! z/ ([G,F]/E/C,/)!ped-up! | %53
!ped! z/ (F,,/C,/A,/) z/ (F/A,/!ped-up!C,/) |!ped! z/ (F,,/C,/G,/) z/ (E/!ped-up!B,/C,/) | %55
!ped! z/ (F,,/C,/C/) z/ (C/!ped!!ped-up!=E,/^^F,,/)!ped-up! | %56
!ped! z/ (G,,/^E,/B,/)!ped-up!!ped! z/ (D/E,/B,,/)!ped-up! | %57
!ped! z/ (A,,/E,/^^C/) z/ (A/C/!ped-up!A,/) | %58
!ped! z/ (A,,/E,/D/)!ped-up! z/!ped! (G/^^C/A,/)!ped-up! | %59
!ped! z/ (A,,/F,/A,/) z/!ped-up! (=E/!ped!A,/^^F,/)!ped-up! | %60
!ped! z/ (A,,/^F,/B,/)!ped-up!!ped! z/ (D/B,/E,/)!ped-up! | %61
!ped! z/ (A,,/E,/^^C/) z/ (E/C/!ped-up!A,/) | %62
!ped! z/ G,,/([B,F]/G,/)!ped-up!!ped! z/ C,,/([B,E]/C,/)!ped-up! | %63
!ped! z/ F,,/([A,=E]/F,/)!ped-up!!ped! z/ (C,/[A,E]/F,/)!ped-up! | %64
!ped! z/"^dim." ^^F,,/([CA]/=E,/)!ped-up! z/!ped! G,,/([B,G]/D,/)!ped-up! | %65
!ped! z/ C,,/([B,G]/E,/)!ped-up! z/!ped! (([^B,F]/!ped-up!!ped![CE]/)) (C,,/!ped-up! | %66
!ped!(6:4:6F,,,/)"^a tempo" (F,,/C,/A,/F,/D/ (6:4:6C/[K:treble]A/F/"^dol."d/c/!ped-up!f/-)!ped! | %67
 (6:4:6(f/=d/=A/F/A/d/!ped-up!!ped! (6:4:6f/d/G/F/G/!ped!d/!ped-up! | %68
 (6:4:6f/) (F,/C/^A/F/^d/ (6:4:6c/a/f/d/c/F/) |!ped! (g2!ped-up!!ped! =g2!ped-up! | %70
!ped! f2)[K:bass] (6:4:6C/A/F/[I:staff -1]d/c/F/!ped-up! | %71
!ped![I:staff +1] (6:4:6z/ (F/C/D,/C/F/)!ped-up!!ped! (6:4:6z/ (F/B,/=D,/B,/F/)!ped-up! | %72
!ped! (6:4:6z/ (C,/A,/F,/=E/G,/ (6:4:6F/E/F,/A,/C,/!ped-up!F,,/) | %73
!ped! (6:4:6z/!>(! (=D/F,/B,,/F,/!ped-up!D/)!ped! (6:4:6z/ (B,/C,/=G,,/C,/!>)!!ped-up!B,/)!ped!!ped-up! | %74
 (6:4:6z/ (=D,,/=A,,/F,/=D,/B,/ (6:4:6=A,/F/=D/A,/D,/A,,/) | %75
!ped! (6:4:6z/ (B,,,/F,,/=D,/B,,/G,/ (6:4:6F,/=D/[I:staff -1]B,/F/D/G/)!ped-up!!ped!!ped-up! | %76
[I:staff +1] (6:4:6F,,,/F,,/^D,/C,/A,/F,/ (6:4:6D/C/A/[I:staff -1]F/d/c/ | %77
[I:staff +1] (6:4:6z/ F,/D/C/A/F/[K:treble] (6:4:6d/c/a/[I:staff -1]f/d'/c'/ | %78
[I:staff +1] z2 z!ped-up!!ped![K:bass] !arpeggio![F,CA]!ped-up!!ped! | %79
 !arpeggio![F,CB]2!ped! !arpeggio![F,=D=A]2 | %80
!pp!!ped! (5:4:5F,,C,^A,F,-C- !fermata![F,C^A]4!ped-up! |] %81
V:3
 x4 | x4 | x4 | x4 | x3!8va(! x | x4!8va)! x12 | x4 | x7/2 (3x/4 x/4x/4 | (!arpeggio![B,D]2 E2- | %9
 E2 DC | (!arpeggio!D3) E | D2 C) z | !arpeggio![B,D]2 E2- | E2 (!arpeggio!B,A, | %14
 (!arpeggio!D3) ^E | D2!p! ^^C) z | !arpeggio![DA]2 G2 | F2 (=E2 | D3 ^E | D2!p! ^^C) z | %20
 x2 (!arpeggio!B2 | A2) c2 | !arpeggio![Ec]2 A2 | x4 | !arpeggio![EG]2 x7/4 x/8x/8 | %25
 x7/4 x/8x/8 x7/4 x/8x/8 | x4 | x2 x7/4 x/8x/8 | x4 | x4 | x2 x7/4 x/8x/8 | %31
 x7/4 x/8x/8 x7/4 x/8x/8 | !arpeggio![=E=A]2 A2 | G2 x7/4 x/8x/8 | x7/4 x/8x/8 x7/4 x/8x/8 | x4 | %36
 x2 x7/4 x/8x/8 | x4 | x4 | ^G2 x [G=d] | !arpeggio![=E=Ac]2 (=G2 | F2 ^GF | E2) x2 | x4 | x4 | %45
 x4 | x2 x7/4 (3x/8x/8x/8 | x3/2!8va(! x9/2!8va)! x10 | x4 | x2 x (3z/ (d/c/ | %50
 (3B/E/) (d/- (3d/g/f/ (3e/B/) (a/- (3a/g/=g/ | (3f/d/=d/- (3d/c/B/- (3B/A/) (.e/ (3.^d/.=d/.c/) | %52
 (3(B/E/) (^d/- (3d/=d/c/ (3^B/e/^d/ (3=d/=B/c/- | %53
 (3c/A/f/ (3d'/!8va(!c'/d''/ c'')!8va)! (3z/ (d/c/ | (3B/E/) (d/- (3d/g/f/ (3e/B/) (a/- (3a/g/=g/ | %55
 (3f/d/=d/- (3d/c/B/- (3B/A/) (.e/ (3.^d/.=d/.c/) | %56
 (3(B/E/) (^d/- (3d/=d/c/ (3B/f/e/- (3e/^^c/^d/- | %57
 (3d/^^c/a/ (3e'/!8va(!^^c'/e''/ a')!8va)! (3z/ (f/e/ | %58
 (3d/G/) (g/- (3g/b/a/ (3^^g/e/) (a/- (3a/g/^g/ | (3f/b/a/- (3a/g/f/ (3=e/A/) (.f/ (3.e/.d/.c/) | %60
 (3(d/B/) (g/- (3g/^e/d/- (3d/c/B/- (3B/^^c/d/- | %61
 (3d/^^c/a/ (3e'/!8va(!^^c'/e''/ a')!8va)! (3z/ (^c/^^c/ | %62
 (3d/B/) (g/- (3g/b/a/ (3g/c/) (c'/- (3c'/^b/=b/ | %63
 (3a/d'/c'/- (3c'/^b/=b/) (3(a/=a/g/ (3=g/f/=e/- | (3e/c/) (f/ (3=e/d/c/- (3c/B/) ^e/ (3d/=d/c/ | %65
 (3B/E/ (d/- (3d/!>(!=d/c/ (3^B/e/^d/ (3c/B/=B/!>)! | A) x x7/4 x/8x/8 | x7/4 x/8x/8 x7/4 x/8x/8 | %68
 x4 | x2 x7/4 x/8x/8 | x4 | x4 | x4 | x2 x7/4 (3x/8x/8x/8 | x4 | x2 x7/4 (3x/8x/8x/8 | x4 | x4 | %78
 x2 x3/4 x/4 x3/4!<(! x/8x/8 | x7/4!<)!!p! (3x/8x/8x/8 x2 | x8 |] %81
V:4
 x4 | x4 | x2[K:treble] x2 | x4 | x4 | x23/2[K:bass] x9/2 | x4 | x4 | z/ (F,,/C,/G,/)z/x/C,/F,,/ | %9
 z/ (F,,/C,/G,/)z/(x/C,/F,,/) | x4 | x4 | z/ (F,,/C,/G,/)z/x/C,/F,,/ | z/ (F,,/C,/C/) x2 | x4 | %15
 x4 | z/ A,,/E,/B,/z/x/G,/A,,/ | z/ (A,,/F,/D/)x/(x/^^F,/A,,/) | z/ (A,,/^F,/^E,/) x2 | x4 | %20
 z/ (G,,/B,/G,/) z/ (B,/C,/C,,/) | z/ (F,,/C,/A,<)x=A,,/ | z/ (G,,/E,/C/) z/ D/G,/E/ | %23
 z/ (G,,/!>(!D,/C/) z/ (^B,/F,/G,,/)!>)! | x3[K:treble] x | x4 | x4 | z/ (C/F/=A/ =d/G/F/C/) | %28
 z/[K:bass] (C,/G,/C/ G/C/G,/C,/) | x4 | x4 | x4 | x4 | x3[K:treble] x | x4 | x4 | %36
 z/ (=E/=A/=c/ =f/B/A/E/) | z/ (=E,/B,/=E/ B/E/B,/E,/) |[K:bass] x4 | x4 | x4 | x4 | x4 | x4 | %44
 x2[K:treble] x2 | x4 | x2 x7/4 (3x/8x/8x/8 | x23/2[K:bass] x9/2 | x4 | x4 | x4 | x4 | x4 | x4 | %54
 x4 | x4 | x4 | x4 | x4 | x4 | x4 | x4 | x/ x3/2 x/ x3/2 | x/ x3/2 z2 | x/ x3/2 x/ x3/2 | %65
 x/ x3/2 x/4 (3x/8x/8x/8 !arpeggio![C,G,] x/ | x7/3[K:treble] x5/3 | x4 | x4 | %69
 (6:4:6g/=d/B/F/B/d/ (6:4:6=g/c/B/F/B/c/ | (6:4:6z/[K:bass] F,,/C,/A,/F,/^D/ x2 | x4 | x4 | x4 | %74
 x4 | x4 | x4 | x2[K:treble] x2 | x2 x3/4 x/8x/8[K:bass] x3/4 x/8x/8 | x7/4 x/8x/8 x2 | %80
 (5:4:4x x x F,2 x4 |] %81
V:5
 x4 | x4 | x4 | x4 | x3!8va(! x | x4!8va)! x12 | x4 | x4 | x4 | x7/2 (3x/4 x/4x/4 | B, x3 | %11
 x7/2 (3x/4 x/4x/4 | x4 | x3/2 (3x/4 x/4x/4 x3/2 (3x/4 x/4x/4 | B, x3 | x7/2 (3x/4 x/4x/4 | x4 | %17
 x2 (^^F2 | G) x3 | x7/2 (3x/4 x/4x/4 | x3/2 (3x/4 x/4x/4 x2 | x2 x7/4 x/8x/8 | x2 x7/4 x/8x/8 | %23
 x7/4 x/8x/8 x7/4 x/8x/8 | x4 | x4 | x4 | x4 | x4 | x4 | x4 | x4 | x4 | x4 | x4 | x4 | x4 | x4 | %38
 x4 | x2 x7/4 (3x/8x/8x/8 | x4 | x4 | x4 | x4 | x4 | x4 | x4 | x3/2!8va(! x9/2!8va)! x10 | x4 | %49
 x4 | x4 | x4 | x4 | x4/3!8va(! x5/3!8va)! x | x4 | x4 | x4 | x4/3!8va(! x5/3!8va)! x | x4 | x4 | %60
 x4 | x4/3!8va(! x5/3!8va)! x | x4 | x4 | x4 | x4 | x4 | x4 | x4 | x4 | x4 | x4 | x4 | x4 | x4 | %75
 x4 | x4 | x4 | x4 | x4 | x8 |] %81
V:6
 x4 | x4 | x4 | x4 | x3!8va(! x | x4!8va)! x12 | x4 | x4 | x4 | x4 | x4 | x4 | x4 | x4 | x4 | x4 | %16
 x4 | x4 | x4 | x4 | x4 | x2 (GF) | x4 | x4 | x4 | x4 | x4 | x4 | x4 | x4 | x4 | x4 | x4 | x4 | %34
 x4 | x4 | x4 | x4 | x4 | x4 | x4 | x4 | x4 | x4 | x4 | x4 | x4 | x3/2!8va(! x9/2!8va)! x10 | x4 | %49
 x4 | x4 | x4 | x4 | x4/3!8va(! x5/3!8va)! x | x4 | x4 | x4 | x4/3!8va(! x5/3!8va)! x | x4 | x4 | %60
 x4 | x4/3!8va(! x5/3!8va)! x | x4 | x4 | x4 | x4 | x4 | x4 | x4 | x4 | x4 | x4 | x4 | x4 | x4 | %75
 x4 | x4 | x4 | x4 | x4 | x8 |] %81
V:7
 x4 | x4 | x2[K:treble] x2 | x4 | x4 | x23/2[K:bass] x9/2 | x4 | x4 | x4 | x4 | x4 | x4 | x4 | x4 | %14
 x4 | x4 | x4 | x4 | x4 | x4 | x4 | x4 | x2 x/ (DE/) | x4 | x3[K:treble] x | x4 | x4 | x4 | %28
 x/[K:bass] x7/2 | x4 | x4 | x4 | x4 | x3[K:treble] x | x4 | x4 | x4 | x4 |[K:bass] x4 | x4 | x4 | %41
 x4 | x4 | x4 | x2[K:treble] x2 | x4 | x4 | x23/2[K:bass] x9/2 | x4 | x4 | x4 | x4 | x4 | x4 | x4 | %55
 x4 | x4 | x4 | x4 | x4 | x4 | x4 | x4 | x4 | x4 | x4 | x7/3[K:treble] x5/3 | x4 | x4 | x4 | %70
 x/3[K:bass] x11/3 | x4 | x4 | x4 | x4 | x4 | x4 | x2[K:treble] x2 | x3[K:bass] x | x4 | x8 |] %81

